!!!OTL: Waechterlied. (Niederländische Melodie des 15. Jahrh.)
!!!ARE: Europa, Mitteleuropa, Deutschland
!!!TXL: @@GMH
!!!SCT: A0107
!!!YEM: Copyright 1995, estate of Helmut Schaffrath.
**kern	**text
!! Mixed meters:  3/2; 4/2; 6/2
*M6/2	*
*met(c|)	*
*clefF3	*
*k[]	*
*d:	*
!LO:TX:a:t=dor.	!
2ryy	.
{2D	Vil
=1	=1
2F	laut
2F	ſo
2G	růfft
2A	der
=2	=2
2B-X	le-
2A	-rer
2F	auß
2F	mit
=3	=3
1G	ſyn-
1A}	-nen:
=4	=4
{2r	.
2A	wer
2A	ſich
2A	ʒů
=5	=5
*M6/2	*
1A	got
2G	um-
2F/	-ke-
1E	-ren
=6	=6
*M4/2	*
1D	wöll,
2r}	.
{2A	der
=7	=7
2A	ſol
2A	ſich
2G	des
2F	be-
=8	=8
1D	-ſin-
1C}	-nen,
=9	=9
{2r	.
2C	daß
2D	er
2E	in
=10	=10
*M6/2	*
2F	ʒeit
1G	von
2F	ſün-
1E	-den
=11	=11
*M3/2	*
*met(3)	*
1.D	ſtell,
=12	=12
2r	.
2r}	.
{2D	ee
=13	=13
1F	im
2G	der
=14	=14
1A	tod
2A	den
=15	=15
1B-	weg
2A	ver-
=16	=16
2.G	-ſtell:
4A	.
4B-	.
4A	.
=17	=17
2.G	.
4F/	.
4E	.
4D	.
=18	=18
1C	.
2r	.
=19	=19
2r	.
2r}	.
{2G	das
=20	=20
*lig	*
2A	rat
2G	.
*Xlig	*
2F	ich
=21	=21
2D	im
1E	mit
=22	=22
2.F	treü-
4E	.
4D	.
4C#i	.
=23	=23
2D/ll}	-en.
==	==
!!!GTL: Tage- oder Wächterlieder
!!!AGN: Romanze, Ballade, Lied
!! Souterliedekens ad Ps. 90.
!!!ONB: ESAC (Essen Associative Code) Database: ALTDEU
!!!AMT: irregular
!!!AIN: vox
!!!EED: Helmut Schaffrath
!!!EEV: 1.0
!!!RDF**kern: i = editorial accidental
!!!RDF**kern: l = terminal long
!!!AMD: Dorian
!!!URL-scan: https://rosdok.uni-rostock.de/mcrviewer/recordIdentifier/rosdok_ppn738218359/iview2/phys_0275.iview2?x=-2091.770685579196&y=126.88510638242587&scale=0.2411630558722919&rotation=0&layout=singlePageLayout&logicalDiv=log_0007
!!!ENC: Anna Maria Matuszewska
!!!EEV: 2024/23/02
*-	*-
